svgs/sharp-light/circle-chevron-left.svg

<svg xmlns="http://www.w3.org/2000/svg" viewBox="0 0 512 512"><!--! Font Awesome Pro 7.1.0 by @fontawesome - https://fontawesome.com License - https://fontawesome.com/license (Commercial License) Copyright 2025 Fonticons, Inc. --><path fill="currentColor" d="M32 256a224 224 0 1 1 448 0 224 224 0 1 1 -448 0zm480 0a256 256 0 1 0 -512 0 256 256 0 1 0 512 0zM164.7 244.7l-11.3 11.3 11.3 11.3 112 112 11.3 11.3 22.6-22.6-11.3-11.3-100.7-100.7 100.7-100.7 11.3-11.3-22.6-22.6-11.3 11.3-112 112z"/></svg>

<svg xmlns="http://www.w3.org/2000/svg" viewBox="0 0 512 512"><!--! Font Awesome Pro 6.7.2 by @fontawesome - https://fontawesome.com License - https://fontawesome.com/license (Commercial License) Copyright 2024 Fonticons, Inc. --><path d="M32 256a224 224 0 1 1 448 0A224 224 0 1 1 32 256zm480 0A256 256 0 1 0 0 256a256 256 0 1 0 512 0zM164.7 244.7L153.4 256l11.3 11.3 112 112L288 390.6 310.6 368l-11.3-11.3L198.6 256 299.3 155.3 310.6 144 288 121.4l-11.3 11.3-112 112z"/></svg>
